X:601
T:Blaris Moor
O:england
B:Joyce, P. W.; "Old Irish Folk Music and Songs"
H:From Mr. J. C. MacGowan, Newtownards.
R:song air
M:C
K:G
L:1/4
G|c c (B/A/) G/E/|G>A B d|e e d B|A>c B A|
G g g g|f>e d B|e>f d d|d2 z d|
e>d e f|g>a g e|d g B B|A2 G B|
c e e/d/ B|d>e B B|A>B G G| G3||


